symbols/default/43m.svg

<svg width="100" height="100" viewBox="0 0 100 100" fill="none" xmlns="http://www.w3.org/2000/svg">
<g clip-path="url(#clip0_149_1449)">
<path fill-rule="evenodd" clip-rule="evenodd" d="M45.3841 20.79C40.8289 22.9449 36.8442 26.2563 33.9 30.4H32.8C27.9 30.4 23.4 32.7 20.7 36.6C19.3206 36.6828 17.9716 36.9025 16.6678 37.253L17.028 33.693L5.50499 34.935L12.336 25.482L1.70999 20.79H45.3841Z" fill="url(#paint0_radial_149_1449)"/>
<path fill-rule="evenodd" clip-rule="evenodd" d="M45.3841 20.79C40.8289 22.9449 36.8442 26.2563 33.9 30.4H32.8C28.2763 30.4 24.0936 32.3603 21.3533 35.7301C18.8012 34.2682 16.5912 32.1393 15.0158 29.421C13.4662 26.7081 12.7365 23.7317 12.7502 20.79H45.3841Z" fill="#FFD348"/>
<path fill-rule="evenodd" clip-rule="evenodd" d="M44.4814 21.236C40.3026 23.3898 36.6481 26.5323 33.9 30.4H32.8C29.2921 30.4 25.9892 31.5788 23.405 33.6795C20.9931 32.4494 18.8964 30.5366 17.4446 28.0335C16.1228 25.7545 15.5012 23.2571 15.5101 20.79H44.4899C44.4893 20.9388 44.4865 21.0875 44.4814 21.236Z" fill="url(#paint1_linear_149_1449)"/>
<path fill-rule="evenodd" clip-rule="evenodd" d="M1.5 18C0.671573 18 0 18.6716 0 19.5C0 20.3284 0.671573 21 1.5 21H44.9495C48.8623 19.0702 53.2143 18 57.7 18C58.0475 18 58.394 18.0064 58.7392 18.019C58.6613 18.0065 58.5814 18 58.5 18H57.7H1.5Z" fill="#21292B"/>
<path fill-rule="evenodd" clip-rule="evenodd" d="M81.3 42.9C79.4 31.6 69.4 23 57.7 23C48.6 23 40.4 28.1 36.4 36.1C35.2 35.6 34 35.4 32.8 35.4C28.6 35.4 25 37.9 23.6 41.6C23 41.5 22.5 41.5 21.9 41.5C17.8 41.5 14 43.1 11.2 46C8.5 48.8 7 52.4 7 56.2V56.4C7.1 60.5 8.7 64.2 11.6 66.9C14.3 69.6 18 71.1 21.9 71.1H77.6C85.5 71.1 92 64.7 92 56.8C92 50.2 87.5 44.5 81.3 42.9Z" fill="#999999"/>
<g opacity="0.6">
<path fill-rule="evenodd" clip-rule="evenodd" d="M81.3 42.9C79.4 31.6 69.4 23 57.7 23C48.6 23 40.4 28.1 36.4 36.1C35.2 35.6 34 35.4 32.8 35.4C28.6 35.4 25 37.9 23.6 41.6C23 41.5 22.5 41.5 21.9 41.5C17.8 41.5 14 43.1 11.2 46C8.5 48.8 7 52.4 7 56.2V56.4C7.1 60.5 8.7 64.2 11.6 66.9C14.3 69.6 18 71.1 21.9 71.1H77.6C85.5 71.1 92 64.7 92 56.8C92 50.2 87.5 44.5 81.3 42.9Z" fill="url(#paint2_linear_149_1449)" style="mix-blend-mode:multiply"/>
</g>
<path d="M26.7 81.5H23.9L25.3 79C25.7 78.4 25.5 77.5 24.8 77.2C24.1 76.8 23.3 77 22.9 77.7L21.5 80.1L20.1 77.7C19.7 77 18.9 76.8 18.3 77.2C17.9 77.4 17.7 77.7 17.6 78C17.5 78.3 17.6 78.7 17.7 79L19.1 81.4H16.4C15.6 81.5 15 82.1 15 82.8C15 83.5 15.6 84.2 16.4 84.2H19.2L17.8 86.6C17.6 86.9 17.6 87.3 17.7 87.6C17.8 87.9 18 88.2 18.3 88.4C18.9 88.8 19.8 88.5 20.1 87.9L21.5 85.5L22.9 88C23.1 88.4 23.6 88.7 24.1 88.7C24.3 88.7 24.6 88.6 24.8 88.5C25.4 88.1 25.7 87.3 25.3 86.7L23.9 84.2H26.7C27.4 84.2 28.1 83.6 28.1 82.8C28.1 82 27.4 81.5 26.7 81.5Z" fill="#00B8F1"/>
<path d="M69.7 90.5H66.9L68.3 88C68.7 87.4 68.5 86.5 67.8 86.2C67.1 85.8 66.3 86 65.9 86.7L64.5 89.1L63.1 86.7C62.7 86 61.9 85.8 61.3 86.2C60.9 86.4 60.7 86.7 60.6 87C60.5 87.3 60.6 87.7 60.7 88L62.1 90.4H59.4C58.6 90.5 58 91.1 58 91.8C58 92.5 58.6 93.2 59.4 93.2H62.2L60.8 95.6C60.6 95.9 60.6 96.3 60.7 96.6C60.8 96.9 61 97.2 61.3 97.4C61.9 97.8 62.8 97.5 63.1 96.9L64.5 94.5L65.9 97C66.1 97.4 66.6 97.7 67.1 97.7C67.3 97.7 67.6 97.6 67.8 97.5C68.4 97.1 68.7 96.3 68.3 95.7L66.9 93.2H69.7C70.4 93.2 71.1 92.6 71.1 91.8C71.1 91 70.4 90.5 69.7 90.5Z" fill="#00B8F1"/>
<path d="M35.5 99C35.2 99 34.8 98.9 34.5 98.8C33.2 98.2 32.7 96.8 33.2 95.5L36.7 87.5C37.3 86.2 38.7 85.7 40 86.2C41.3 86.8 41.8 88.2 41.3 89.5L37.8 97.5C37.4 98.5 36.5 99 35.5 99Z" fill="#006EDB"/>
<path d="M50.5 91C50.2 91 49.8 90.9 49.5 90.8C48.2 90.2 47.7 88.8 48.2 87.5L51.7 79.5C52.3 78.2 53.7 77.7 55 78.2C56.3 78.8 56.8 80.2 56.3 81.5L52.8 89.5C52.4 90.5 51.5 91 50.5 91Z" fill="#006EDB"/>
<path d="M78.5 91C78.2 91 77.8 90.9 77.5 90.8C76.2 90.2 75.7 88.8 76.2 87.5L79.7 79.5C80.3 78.2 81.7 77.7 83 78.2C84.3 78.8 84.8 80.2 84.3 81.5L80.8 89.5C80.4 90.5 79.5 91 78.5 91Z" fill="#006EDB"/>
</g>
<defs>
<radialGradient id="paint0_radial_149_1449" cx="0" cy="0" r="1" gradientUnits="userSpaceOnUse" gradientTransform="translate(30 20.79) scale(28.29)">
<stop offset="0.5143" stop-color="#D6B849"/>
<stop offset="0.6523" stop-color="#FFCE47"/>
<stop offset="1" stop-color="#FFDB73"/>
</radialGradient>
<linearGradient id="paint1_linear_149_1449" x1="20.6851" y1="9.6893" x2="39.3147" y2="31.8912" gradientUnits="userSpaceOnUse">
<stop stop-color="#FFAF22"/>
<stop offset="0.9897" stop-color="#F09900"/>
</linearGradient>
<linearGradient id="paint2_linear_149_1449" x1="47.5" y1="38.5" x2="49.5" y2="71.1" gradientUnits="userSpaceOnUse">
<stop offset="0.484375" stop-color="white" stop-opacity="0"/>
<stop offset="1" stop-color="#B3B2B2"/>
</linearGradient>
<clipPath id="clip0_149_1449">
<rect width="100" height="100" fill="white"/>
</clipPath>
</defs>
</svg>

<svg xmlns="http://www.w3.org/2000/svg" fill="none" viewBox="0 0 100 100">
  <g clip-path="url(#a)">
    <path fill="url(#b)" fill-rule="evenodd" d="M45.384 20.79A29.687 29.687 0 0 0 33.9 30.4h-1.1c-4.9 0-9.4 2.3-12.1 6.2-1.38.083-2.728.303-4.032.653l.36-3.56-11.523 1.242 6.831-9.453L1.71 20.79h43.674Z" clip-rule="evenodd"/>
    <path fill="#FFD348" fill-rule="evenodd" d="M45.384 20.79A29.687 29.687 0 0 0 33.9 30.4h-1.1c-4.524 0-8.706 1.96-11.447 5.33a17.168 17.168 0 0 1-6.337-6.309 17.195 17.195 0 0 1-2.266-8.631h32.634Z" clip-rule="evenodd"/>
    <path fill="url(#c)" fill-rule="evenodd" d="M44.481 21.236A29.679 29.679 0 0 0 33.9 30.4h-1.1c-3.508 0-6.81 1.179-9.395 3.28a14.474 14.474 0 0 1-5.96-5.646 14.29 14.29 0 0 1-1.935-7.244h28.98c0 .149-.004.297-.009.446Z" clip-rule="evenodd"/>
    <path fill="#21292B" fill-rule="evenodd" d="M1.5 18a1.5 1.5 0 0 0 0 3h43.45c3.912-1.93 8.264-3 12.75-3 .347 0 .694.006 1.04.019A1.509 1.509 0 0 0 58.5 18h-57Z" clip-rule="evenodd"/>
    <path fill="#999" fill-rule="evenodd" d="M81.3 42.9C79.4 31.6 69.4 23 57.7 23c-9.1 0-17.3 5.1-21.3 13.1-1.2-.5-2.4-.7-3.6-.7-4.2 0-7.8 2.5-9.2 6.2-.6-.1-1.1-.1-1.7-.1-4.1 0-7.9 1.6-10.7 4.5C8.5 48.8 7 52.4 7 56.2v.2c.1 4.1 1.7 7.8 4.6 10.5 2.7 2.7 6.4 4.2 10.3 4.2h55.7c7.9 0 14.4-6.4 14.4-14.3 0-6.6-4.5-12.3-10.7-13.9Z" clip-rule="evenodd"/>
    <path fill="url(#d)" fill-rule="evenodd" d="M81.3 42.9C79.4 31.6 69.4 23 57.7 23c-9.1 0-17.3 5.1-21.3 13.1-1.2-.5-2.4-.7-3.6-.7-4.2 0-7.8 2.5-9.2 6.2-.6-.1-1.1-.1-1.7-.1-4.1 0-7.9 1.6-10.7 4.5C8.5 48.8 7 52.4 7 56.2v.2c.1 4.1 1.7 7.8 4.6 10.5 2.7 2.7 6.4 4.2 10.3 4.2h55.7c7.9 0 14.4-6.4 14.4-14.3 0-6.6-4.5-12.3-10.7-13.9Z" clip-rule="evenodd" opacity=".6" style="mix-blend-mode:multiply"/>
    <g filter="url(#e)" opacity=".3" style="mix-blend-mode:multiply">
      <path fill="#B6B6B6" d="M29.5 64c1.787 0 24.848-1.272 26.48-2 2.23-.994-2.39-6.972 0-7.47 1.08-.224 2.667-.927 2.667-.927s4.352-1.602 5.103-1.602c.75 0 .374-2.964.14-4.81l-.14-1.32c0-.87-2.592-2.674-3-4.87-.284-1.527.424-3.585.276-3.968 0 0-.05-.029-.036-.032.014-.004.026.007.036.032.112.053.922.327.922.327 1.948.66 5.03 1.74 7.802 3.64 1.658 1.138 3.941 3.314 3.941 3.314s1.645 1.272 2.059 1.687c1 1 4 4 6 4h5L89 51.59l.5 3.21c0 7.9-6.5 14.3-14.4 14.3H18.5S23 64 29.5 64Z"/>
    </g>
    <path fill="#00B8F1" d="M26.7 81.5h-2.8l1.4-2.5c.4-.6.2-1.5-.5-1.8-.7-.4-1.5-.2-1.9.5l-1.4 2.4-1.4-2.4c-.4-.7-1.2-.9-1.8-.5-.4.2-.6.5-.7.8-.1.3 0 .7.1 1l1.4 2.4h-2.7c-.8.1-1.4.7-1.4 1.4s.6 1.4 1.4 1.4h2.8l-1.4 2.4c-.2.3-.2.7-.1 1 .1.3.3.6.6.8.6.4 1.5.1 1.8-.5l1.4-2.4 1.4 2.5c.2.4.7.7 1.2.7.2 0 .5-.1.7-.2.6-.4.9-1.2.5-1.8l-1.4-2.5h2.8c.7 0 1.4-.6 1.4-1.4 0-.8-.7-1.3-1.4-1.3ZM69.7 90.5h-2.8l1.4-2.5c.4-.6.2-1.5-.5-1.8-.7-.4-1.5-.2-1.9.5l-1.4 2.4-1.4-2.4c-.4-.7-1.2-.9-1.8-.5-.4.2-.6.5-.7.8-.1.3 0 .7.1 1l1.4 2.4h-2.7c-.8.1-1.4.7-1.4 1.4s.6 1.4 1.4 1.4h2.8l-1.4 2.4c-.2.3-.2.7-.1 1 .1.3.3.6.6.8.6.4 1.5.1 1.8-.5l1.4-2.4 1.4 2.5c.2.4.7.7 1.2.7.2 0 .5-.1.7-.2.6-.4.9-1.2.5-1.8l-1.4-2.5h2.8c.7 0 1.4-.6 1.4-1.4 0-.8-.7-1.3-1.4-1.3Z"/>
    <path fill="#006EDB" d="M35.5 99c-.3 0-.7-.1-1-.2-1.3-.6-1.8-2-1.3-3.3l3.5-8c.6-1.3 2-1.8 3.3-1.3 1.3.6 1.8 2 1.3 3.3l-3.5 8c-.4 1-1.3 1.5-2.3 1.5ZM50.5 91c-.3 0-.7-.1-1-.2-1.3-.6-1.8-2-1.3-3.3l3.5-8c.6-1.3 2-1.8 3.3-1.3 1.3.6 1.8 2 1.3 3.3l-3.5 8c-.4 1-1.3 1.5-2.3 1.5ZM78.5 91c-.3 0-.7-.1-1-.2-1.3-.6-1.8-2-1.3-3.3l3.5-8c.6-1.3 2-1.8 3.3-1.3 1.3.6 1.8 2 1.3 3.3l-3.5 8c-.4 1-1.3 1.5-2.3 1.5Z"/>
  </g>
  <defs>
    <linearGradient id="c" x1="20.685" x2="39.315" y1="9.689" y2="31.891" gradientUnits="userSpaceOnUse">
      <stop stop-color="#FFAF22"/>
      <stop offset=".99" stop-color="#F09900"/>
    </linearGradient>
    <linearGradient id="d" x1="47.5" x2="49.5" y1="38.5" y2="71.1" gradientUnits="userSpaceOnUse">
      <stop offset=".484" stop-color="#fff" stop-opacity="0"/>
      <stop offset="1" stop-color="#B3B2B2"/>
    </linearGradient>
    <radialGradient id="b" cx="0" cy="0" r="1" gradientTransform="translate(30 20.79) scale(28.29)" gradientUnits="userSpaceOnUse">
      <stop offset=".514" stop-color="#D6B849"/>
      <stop offset=".652" stop-color="#FFCE47"/>
      <stop offset="1" stop-color="#FFDB73"/>
    </radialGradient>
    <clipPath id="a">
      <path fill="#fff" d="M0 0h100v100H0z"/>
    </clipPath>
    <filter id="e" width="85" height="46.101" x="11.5" y="30" color-interpolation-filters="sRGB" filterUnits="userSpaceOnUse">
      <feFlood flood-opacity="0" result="BackgroundImageFix"/>
      <feBlend in="SourceGraphic" in2="BackgroundImageFix" result="shape"/>
      <feGaussianBlur result="effect1_foregroundBlur_149_1449" stdDeviation="3.5"/>
    </filter>
  </defs>
</svg>
